X: 881
T: Old Stuarts back again
R: reel
B: Robert Bremner "A Collection of Scots Reels or Country Dances" 1757 p.88 #1
S: http://imslp.org/wiki/A_Collection_of_Scots_Reels_or_Country_Dances_(Bremner,_Robert)
Z: 2013 John Chambers <jc:trillian.mit.edu>
M: C
L: 1/8
K: G
% - - - - - - - - - - - - - - - - - - - - - - - - -
V: 1
(c |\
B)GAG FGA(c | B)GAG cEE(c |\
B)GAG FGA(g | f)de^c dDD :|
|: g |\
fgaf gabg | fgaf beeg |\
fgaf gab(g | f)de^c dDD :|
% - - - - - - - - - - - - - - - - - - - - - - - - -
V: 2 clef=bass middle=d
z |\
g2g2 d2d2 | g2g2 e2e2 |\
g2g2 d2d2 | A2A2 D2D :|\
|: z |\
d2d2 d2d2 | d2d2 e2e2 |\
d2d2 g2g2 | a2a2 d2d :|
% - - - - - - - - - - - - - - - - - - - - - - - - -

%%sep 1 1 500
%%sep 1 1 500
